client/src/img/enter.svg

<svg width="512" height="512" fill="none" xmlns="http://www.w3.org/2000/svg"><path d="M254.933 21.333c-122.41 0-222.805 93.76-233.6 213.334h190.934v-64c0-8.619 5.205-16.427 13.163-19.712 7.978-3.286 17.151-1.472 23.253 4.629l85.333 85.333c8.341 8.342 8.341 21.824 0 30.166l-85.333 85.333c-6.102 6.101-15.275 7.915-23.253 4.629a21.334 21.334 0 01-13.163-19.712v-64H21.334c10.794 119.574 111.189 213.334 233.599 213.334C384.533 490.667 489.6 385.6 489.6 256c0-129.6-105.067-234.667-234.667-234.667z" fill="#4CAF50"/><path d="M489.6 256H340.267a21.277 21.277 0 01-6.251 15.083l-85.333 85.333a21.377 21.377 0 01-15.083 6.251c-2.752 0-5.525-.534-8.17-1.622a21.334 21.334 0 01-13.163-19.712v-64H21.334c10.794 119.574 111.189 213.334 233.599 213.334C384.533 490.667 489.6 385.6 489.6 256z" fill="#429846"/></svg>

<svg width="512" height="512" viewBox="0 0 512 512" fill="none" xmlns="http://www.w3.org/2000/svg">
<path d="M254.933 21.3333C132.523 21.3333 32.1282 115.093 21.3335 234.667H212.267V170.667C212.267 162.048 217.472 154.24 225.43 150.955C233.408 147.669 242.581 149.483 248.683 155.584L334.016 240.917C342.357 249.259 342.357 262.741 334.016 271.083L248.683 356.416C242.581 362.517 233.408 364.331 225.43 361.045C217.451 357.739 212.267 349.952 212.267 341.333V277.333H21.3335C32.1282 396.907 132.523 490.667 254.933 490.667C384.533 490.667 489.6 385.6 489.6 256C489.6 126.4 384.533 21.3333 254.933 21.3333Z" fill="#4CAF50"/>
<path d="M489.6 256H340.267C340.267 261.461 338.176 266.923 334.016 271.083L248.683 356.416C244.587 360.491 239.147 362.667 233.6 362.667C230.848 362.667 228.075 362.133 225.43 361.045C217.451 357.739 212.267 349.952 212.267 341.333V277.333H21.3335C32.1282 396.907 132.523 490.667 254.933 490.667C384.533 490.667 489.6 385.6 489.6 256Z" fill="#429846"/>
</svg>
